!!!COM: Corelli, Arcangelo
!!!OTL: 
!!!ONM: Opus 5, No. 5
!!!OMV: 5
!!!CDT: 1653/2/17/-1713/1/8/
!!!OCY: Italia
**kern	**kern
*clefC	*clefG
*k[b-]	*k[b-]
*d:	*d:
*M4/4	*M4/4
2..r	2.r
.	6r
8r	.
.	12dd
=1	=1
4G	12gg
.	12aa
.	12ff#
4A	12gg
.	12aa
.	12ff#
4B-	4gg
4r	12gg
.	12aa
.	12bb-
=2	=2
4A	12ff
.	12gg
.	12dd
4F	12ee-
.	12ff
.	12cc
4BB-	12dd
.	12ff
.	12bb-
4r	12dd
.	12cc
.	12b-
=3	=3
4E	12cc
.	12bb-
.	12aa
4F#	12cc
.	12b-
.	12a
4G	12b-
.	12aa
.	12gg
4r	12dd
.	12ff#
.	12gg
=4	=4
4C	12cc
.	12ff#
.	12gg
4D	12d
.	12gg
.	12ff#
4GG	12g
.	12b-
.	12dd
4r	12g
.	12b-
.	12dd
=5	=5
4D	12f#
.	12a
.	12dd
4r	12f#
.	12a
.	12dd
4G	12g
.	12b-
.	12ee-
4r	12g
.	12b-
.	12ee-
=6	=6
4F	12a
.	12cc
.	12ff
4r	12a
.	12cc
.	12ff
4BB-	12dd
.	12cc
.	12b-
4r	12dd
.	12ff
.	12gg
=7	=7
4G	12b
.	12dd
.	12gg
4r	12b
.	12dd
.	12gg
4C	12ee-
.	12dd
.	12cc
8r	12dd
.	12f#
8D	.
.	12dd
=8	=8
2E-	12g
.	12b-
.	12dd
.	12e-
.	12dd
.	12cc
4D	4dd
4GG	4b- 4g
=9	=9
4D	4dd 4f#
4GG	4b- 4g
4.D	[3a
.	12a 12d 12f#]
8r	.
.	12ff
=10	=10
4B-	12dd
.	12cc
.	12b-
4BB-	12dd
.	12cc
.	12b-
4F	12f
.	12a
.	12b-
8r	12d
.	12b-
8D	.
.	12cc
=11	=11
4E-	12e-
.	12b-
.	12cc
8r	12f
.	12b-
8F	.
.	12a
4G	12g
.	12a
.	12b-
8r	12d
.	12b-
8D	.
.	12cc
=12	=12
4E-	12e-
.	12b-
.	12cc
8r	12f
.	12b-
8F	.
.	12a
4G	12g
.	12a
.	12b-
4D	12ff
.	12b-
.	12ff
=13	=13
4E-	12gg
.	12b-
.	12gg
4F	12aa
.	12b-
.	12aa
4G	12bb-
.	12ff
.	12ee-
4D	12dd
.	12cc
.	12b-
=14	=14
4E-	12g
.	12a
.	12b-
4F	12f
.	12b-
.	12a
4BB-	4b-
4C	12bb-
.	12aa
.	12gg
=15	=15
4D	12ff
.	12ee-
.	12dd
4E-	12cc
.	12dd
.	12b-
4F	12f
.	12a
.	12b-
4G	12d
.	12b-
.	12cc
=16	=16
4E-	12e-
.	12b-
.	12cc
4F	12f
.	12b-
.	12a
2BB-	4B-
.	6r
.	12dd
=17	=17
4G	12gg
.	12aa
.	12ff#
4A	12gg
.	12aa
.	12ff#
4B-	4gg
4r	12gg
.	12aa
.	12bb-
=18	=18
4A	12ff
.	12gg
.	12dd
4F	12ee-
.	12ff
.	12cc
4BB-	12dd
.	12ff
.	12bb-
4r	12dd
.	12cc
.	12b-
=19	=19
4E	12cc
.	12bb-
.	12aa
4F#	12cc
.	12b-
.	12a
4G	12b-
.	12aa
.	12gg
4r	12dd
.	12ff#
.	12gg
=20	=20
4C	12cc
.	12ff#
.	12gg
4D	12d
.	12gg
.	12ff#
4G	12g
.	12b-
.	12ee-
4r	12g
.	12f
.	12e-
=21	=21
4F	12f
.	12a
.	12dd
4r	12f
.	12e-
.	12d
4E-	12e-
.	12dd
.	12cc
4r	12f#
.	12cc
.	12dd
=22	=22
4C	12g
.	12a
.	12b-
4D	12d
.	12g
.	12f#
4G	12g
.	12b-
.	12ee-
4r	12g
.	12f
.	12e-
=23	=23
4F	12f
.	12a
.	12dd
4r	12f
.	12e-
.	12d
4E-	12e-
.	12dd
.	12cc
4r	12f#
.	12cc
.	12dd
=24	=24
4C	12g
.	12a
.	12b-
4D	12d
.	12g
.	12f#
4.GG	[3G
.	12G]
8r	.
.	12r
==	==
*-	*-
!!!RWG: This file only contains pitch and duration data.
!!!RWG: Transposing instruments are not transposed.
!!!RWG: Durations of rests and tied notes may be interpreted.
!!!RWG: Key is interpreted using the Humdrum key tool.
!!!SCA: 
!!!YOR: 
!!!AGN: violin
!!!AFT: stage1
!!!ENC: F. Bennion
!!!END: 1997/04/15
!!!AST: baroque
!!!YEC: Copyright 1994, Center for Computer Assisted Research in the Humanities
!!!YEM: Rights to all derivative electronic formats reserved.
!!!YEM: Refer to licensing agreement for further details.
!!!YEN: United States of America
!!!EED: W.B. Hewlett
!!!KEY: 3203059805
!!!EMD: Converted from MuseData to Humdrum Aug 9, 1999, by Bret Aarden using muse2kern.
!!!VTS: 2823167493
